icon.svg

<svg
  width="1280"
  height="720"
  viewBox="0 0 400 400"
  xmlns:inkscape="http://www.inkscape.org/namespaces/inkscape"
  xmlns:sodipodi="http://sodipodi.sourceforge.net/DTD/sodipodi-0.dtd"
  xmlns:xlink="http://www.w3.org/1999/xlink"
  xmlns="http://www.w3.org/2000/svg">
  <defs
    id="defs">
    <linearGradient
      id="linearGradient806"
      x1="0"
      y1="0"
      x2="1"
      y2="0"
      gradientUnits="objectBoundingBox">
      <stop
        style="stop-color:#4B6B8A;stop-opacity:1;"
        offset="0" />
      <stop
        style="stop-color:#81A2C3;stop-opacity:1;"
        offset="1" />
    </linearGradient>
    <linearGradient
      id="linearGradient62"
      x1="38.90006"
      y1="11"
      x2="360.7"
      y2="11"
      gradientUnits="userSpaceOnUse"
      xlink:href="#linearGradient806" />
    <linearGradient
      id="linearGradient399"
      x1="137.3"
      y1="278.4"
      x2="213.90001"
      y2="278.4"
      gradientUnits="userSpaceOnUse"
      xlink:href="#linearGradient806" />
    <linearGradient
      id="linearGradient675"
      x1="123.600006"
      y1="331.3"
      x2="181"
      y2="331.3"
      gradientUnits="userSpaceOnUse"
      xlink:href="#linearGradient806" />
    <linearGradient
      id="linearGradient191"
      x1="170.9"
      y1="363.2"
      x2="206.9"
      y2="363.2"
      gradientUnits="userSpaceOnUse"
      xlink:href="#linearGradient806" />
  </defs>
  <sodipodi:namedview
    id="namedview725"
    style="inkscape:cx:0;inkscape:cy:0;inkscape:zoom:1;inkscape:document-units:px;inkscape:current-layer:;">
    <inkscape:grid
      id="grid530"
      style="spacingy:32;type:xygrid;units:px;spacingx:32;" />
  </sodipodi:namedview>
  <style
    id="css1"
    style="fill-opacity:1;fill:#8892B5;fill-rule:nonzero;" />
  <ellipse
    id="ellipse5801"
    style="fill-rule:nonzero;stroke-width:3px;fill:url(#linearGradient675);stroke-opacity:1;stroke-linejoin:miter;stroke:#2F5274;fill-opacity:1;stroke-linecap:butt;"
    cx="152.3"
    cy="350.4"
    rx="28.7"
    ry="19.1" />
  <ellipse
    id="ellipse5787"
    style="fill-opacity:1;stroke-linejoin:miter;fill-rule:nonzero;stroke:#2F5274;stroke-opacity:1;stroke-linecap:butt;stroke-width:3px;fill:url(#linearGradient399);"
    cx="175.6"
    cy="303"
    rx="38.3"
    ry="24.6" />
  <path
    id="path8335"
    style="stroke-linejoin:miter;stroke-width:3px;fill-rule:nonzero;stroke-opacity:1;stroke-linecap:butt;fill:url(#linearGradient62);stroke:#2F5274;fill-opacity:1;"
    d="M295.4 192.9C295.4 192.9 303.8 194.6 308.2 192.9C316.4 189.7 320.7 187.8 333.6 178.9C338.4 175.6 292.1 155.4 295.3 153.1C298.4 150.9 336.8 177.3 339.9 174.6C347.2 168.2 358.3 156 360 142C360.7 136.4 340.2 136.9 340.2 132.8C340.2 129.4 361.1 138.9 360.2 134.3C359.1 128.3 357.3 110.3 354.9 102.7C352.5 95.00001 349.5 86.9 346.1 79.10001C342.6 71.3 327.6 57.2 321.7 50.00001C318.7 46.40001 325.1 84.10001 322.8 82.10001C320.5001 80.2 320.1 47.90001 314.3 44.7C302.4001 29 279.2 22.7 271.0001 19.2C262.8001 15.7 272.9001 41.10001 271.2001 40.5C269.4001 39.90001 267.1001 21.1 257.6001 16.9C248.1001 12.7 231.7001 13.2 227.1001 12.6C222.4001 12 231.7001 36.8 229.8001 34.2C227.1001 30.7 222.8001 12.5 218.6001 12.3C201.7001 11.60001 186.1001 11 180.8001 13C177.1001 14.4 184.8001 16.90001 192.5001 33.90001C196.3001 42.3 209.3001 80.90001 206.7001 81.10001C203.2001 81.40001 196.8001 41.50001 186.2001 29.2C171.3001 11.8 176.2001 13.1 168.9001 14.2C158.2001 15.7 146.4001 20.40001 138.0001 26.3C134.1001 29.00001 149.9001 47.60001 148.1001 50.40001C145.1001 51.80001 135.7001 27.7 129.6001 31.00001C125.7001 33.2 102.3001 50.10001 96.20007 56.40001C92.10007 60.7 117.8001 80.50001 116.5001 82.10001C113.7001 85.50001 94.60006 60.2 91.40006 63.50001C88.30006 66.80001 86.00006 69.40001 85.00006 70.80001C75.40006 84.10001 71.00006 90.70001 63.90006 101.4C62.90006 102.9 81.10007 111 80.30006 113.1C79.70007 114.7 62.70007 104.6 61.90006 106.4C61.00006 108.2 54.40006 124.4 53.40006 126.6C49.50006 136 93.60007 150.6 92.40006 153.4C91.00006 156.6 51.50006 131 49.70006 136.4C47.90006 141.7 46.40006 147 45.00006 152.2C44.40006 154.8 39.90006 174.1 39.40006 176.7C38.90006 179.3 62.20006 185.4 61.90006 188C61.50006 190.6 39.90006 180.5 39.60006 183.1C39.40006 185.7 40.20006 192.9 40.10006 195.6C39.60006 206.3 43.70006 223.6 47.90006 234.9C50.00006 240.5 57.00006 227.1 58.90006 228.6C62 231 50 239.3 52 242.3C53.9 245.3 57.6 248.1 61.8 250.8C67.7 254.5 74.6 257.7 78.8 259.5C82.4 261 117.7 243.4 121.5 244.1C125.4 244.8 78.4 259.8 86.8 262.9C94.5 265.6 109.4 260.4 117.6 259.3C125.8 258.1 133.9 257.2 141.9 258.1C149.9 259 157.8 261.7 165.6 264.9C173.5 268.1 181.4 271.7 189.6 274.4C205.9 279.7 223 281.2 239.7 280.6C256.4 280 287.1 270.8 306.4 255.6C309.8 253.6 264.5 243.1 265.6 241.7C268.2 238.6 306.7 254.1 310.5 250C317 243 323.2 235.1 324.4 228.4C325.6 221.7 323.2 215.8 318.8 210.6C314.5 205.4 308.3 200.8 301.9 196.9C295.5 193 288.9 189.6 282.7 187C276.4 184.4 270.4 182.5 265.2 181.4C254.7 179.2 233.5 178.8 229.8 178.4C226.2 178.1 217.8 176.4 211.7 175.1C208.3 173.7 204.7 171.8 202.1 170.2C199.5 168.7 208.7 173.2 208.7 173.2" />
  <ellipse
    id="ellipse2180"
    style="stroke:#2F5274;stroke-linecap:butt;stroke-linejoin:miter;fill-opacity:1;fill-rule:nonzero;fill:url(#linearGradient191);stroke-width:3px;stroke-opacity:1;"
    cx="188.9"
    cy="375.7"
    rx="18"
    ry="12.5" />
  <text
    id="text28"
    style="fill:#8892B5;"
    transform="matrix(.9557 0 0 1 334.541 124.327)"
    x="0"
    y="0" />
  <text
    id="text522"
    style="fill:#8892B5;"
    transform="matrix(.9557 0 0 1 334.541 124.327)"
    x="0"
    y="0" />
  <text
    id="text38"
    style="fill:#8892B5;"
    transform="matrix(.9557 0 0 1 241.01 166.377)"
    x="0"
    y="0" />
  <text
    id="text605"
    style="fill:#8892B5;"
    transform="matrix(.9557 0 0 1 241.01 166.377)"
    x="0"
    y="0" />
</svg>

<svg xmlns="http://www.w3.org/2000/svg" xml:space="preserve" id="Layer_1" x="0" y="0" style="enable-background:new 0 0 400 400" version="1.1" viewBox="0 0 400 400"><style>.st4{fill:#fff}.st5{font-family:&quot;Futura-Medium&quot;}.st6{font-size:36.9664px}.st7{fill:none;stroke:#000;stroke-width:.75}</style><linearGradient id="ellipse5801_00000183945273585744273560000007784661832679458451_" x1="817.848" x2="900.128" y1="372.963" y2="372.963" gradientTransform="matrix(.6967 0 0 .8099 -446.195 48.337)" gradientUnits="userSpaceOnUse"><stop offset="0" style="stop-color:#005bc0"/><stop offset="1" style="stop-color:#78c0ff"/></linearGradient><linearGradient id="ellipse5801_00000181806593216682153130000004407581301480173708_" x1="814.741" x2="903.312" y1="372.963" y2="372.963" gradientTransform="matrix(.6967 0 0 .8099 -446.195 48.337)" gradientUnits="userSpaceOnUse"><stop offset="0" style="stop-color:#004a88"/><stop offset="1" style="stop-color:#4092f1"/></linearGradient><ellipse id="ellipse5801" cx="152.3" cy="350.4" rx="28.7" ry="19.1" style="fill:url(#ellipse5801_00000183945273585744273560000007784661832679458451_);stroke:url(#ellipse5801_00000181806593216682153130000004407581301480173708_);stroke-width:6.6569"/><linearGradient id="ellipse5787_00000116219602028731522870000012829013330058819501_" x1="284.412" x2="366.68" y1="489.751" y2="489.751" gradientTransform="matrix(.9311 0 0 1.0443 -127.516 -208.447)" gradientUnits="userSpaceOnUse"><stop offset="0" style="stop-color:#005bc0"/><stop offset="1" style="stop-color:#78c0ff"/></linearGradient><linearGradient id="ellipse5787_00000108298611705381777660000007788635405965341852_" x1="281.32" x2="369.876" y1="489.751" y2="489.751" gradientTransform="matrix(.9311 0 0 1.0443 -127.516 -208.447)" gradientUnits="userSpaceOnUse"><stop offset="0" style="stop-color:#004a88"/><stop offset="1" style="stop-color:#4092f1"/></linearGradient><ellipse id="ellipse5787" cx="175.6" cy="303" rx="38.3" ry="24.6" style="fill:url(#ellipse5787_00000116219602028731522870000012829013330058819501_);stroke:url(#ellipse5787_00000108298611705381777660000007788635405965341852_);stroke-width:6.6569"/><linearGradient id="path8335_00000060712608514152542940000001040679614392510366_" x1="-518.667" x2="-318.018" y1="540.381" y2="540.381" gradientTransform="matrix(1.6229 -.2918 .2862 1.6551 722.145 -867.575)" gradientUnits="userSpaceOnUse"><stop offset="0" style="stop-color:#005bc0"/><stop offset="1" style="stop-color:#78c0ff"/></linearGradient><linearGradient id="path8335_00000078016190875171059790000001409873207491137163_" x1="-425.657" x2="-340.436" y1="540.381" y2="540.381" gradientTransform="matrix(1.6229 -.2918 .2862 1.6551 722.145 -867.575)" gradientUnits="userSpaceOnUse"><stop offset="0" style="stop-color:#004a88"/><stop offset="1" style="stop-color:#4092f1"/></linearGradient><path id="path8335" d="M295.4 192.9s8.4 1.7 12.8 0c8.2-3.2 12.5-5.1 25.4-14 4.8-3.3-41.5-23.5-38.3-25.8 3.1-2.2 41.5 24.2 44.6 21.5 7.3-6.4 18.4-18.6 20.1-32.6.7-5.6-19.8-5.1-19.8-9.2 0-3.4 20.9 6.1 20 1.5-1.1-6-2.9-24-5.3-31.6-2.4-7.7-5.4-15.8-8.8-23.6-3.5-7.8-18.5-21.9-24.4-29.1-3-3.6 3.4 34.1 1.1 32.1-2.3-1.9-2.7-34.2-8.5-37.4-11.9-15.7-35.1-22-43.3-25.5s1.9 21.9.2 21.3c-1.8-.6-4.1-19.4-13.6-23.6s-25.9-3.7-30.5-4.3c-4.7-.6 4.6 24.2 2.7 21.6-2.7-3.5-7-21.7-11.2-21.9-16.9-.7-32.5-1.3-37.8.7-3.7 1.4 4 3.9 11.7 20.9 3.8 8.4 16.8 47 14.2 47.2-3.5.3-9.9-39.6-20.5-51.9-14.9-17.4-10-16.1-17.3-15-10.7 1.5-22.5 6.2-30.9 12.1-3.9 2.7 11.9 21.3 10.1 24.1-3 1.4-12.4-22.7-18.5-19.4-3.9 2.2-27.3 19.1-33.4 25.4-4.1 4.3 21.6 24.1 20.3 25.7-2.8 3.4-21.9-21.9-25.1-18.6-3.1 3.3-5.4 5.9-6.4 7.3-9.6 13.3-14 19.9-21.1 30.6-1 1.5 17.2 9.6 16.4 11.7-.6 1.6-17.6-8.5-18.4-6.7-.9 1.8-7.5 18-8.5 20.2-3.9 9.4 40.2 24 39 26.8-1.4 3.2-40.9-22.4-42.7-17-1.8 5.3-3.3 10.6-4.7 15.8-.6 2.6-5.1 21.9-5.6 24.5s22.8 8.7 22.5 11.3c-.4 2.6-22-7.5-22.3-4.9-.2 2.6.6 9.8.5 12.5-.5 10.7 3.6 28 7.8 39.3 2.1 5.6 9.1-7.8 11-6.3C62 231 50 239.3 52 242.3c1.9 3 5.6 5.8 9.8 8.5 5.9 3.7 12.8 6.9 17 8.7 3.6 1.5 38.9-16.1 42.7-15.4 3.9.7-43.1 15.7-34.7 18.8 7.7 2.7 22.6-2.5 30.8-3.6 8.2-1.2 16.3-2.1 24.3-1.2s15.9 3.6 23.7 6.8c7.9 3.2 15.8 6.8 24 9.5 16.3 5.3 33.4 6.8 50.1 6.2 16.7-.6 47.4-9.8 66.7-25 3.4-2-41.9-12.5-40.8-13.9 2.6-3.1 41.1 12.4 44.9 8.3 6.5-7 12.7-14.9 13.9-21.6 1.2-6.7-1.2-12.6-5.6-17.8-4.3-5.2-10.5-9.8-16.9-13.7s-13-7.3-19.2-9.9c-6.3-2.6-12.3-4.5-17.5-5.6-10.5-2.2-31.7-2.6-35.4-3-3.6-.3-12-2-18.1-3.3-3.4-1.4-7-3.3-9.6-4.9-2.6-1.5 6.6 3 6.6 3" style="fill:url(#path8335_00000060712608514152542940000001040679614392510366_);stroke:url(#path8335_00000078016190875171059790000001409873207491137163_);stroke-width:6.6569"/><linearGradient id="ellipse2180_00000055676632465964325550000010901414362973568940_" x1="1902.078" x2="1984.429" y1="168.218" y2="168.218" gradientTransform="matrix(.4376 0 0 .5295 -661.514 286.628)" gradientUnits="userSpaceOnUse"><stop offset="0" style="stop-color:#005bc0"/><stop offset="1" style="stop-color:#78c0ff"/></linearGradient><linearGradient id="ellipse2180_00000028305418081204657660000005724746832580606865_" x1="1898.624" x2="1987.879" y1="168.218" y2="168.218" gradientTransform="matrix(.4376 0 0 .5295 -661.514 286.628)" gradientUnits="userSpaceOnUse"><stop offset="0" style="stop-color:#004a88"/><stop offset="1" style="stop-color:#4092f1"/></linearGradient><ellipse id="ellipse2180" cx="188.9" cy="375.7" rx="18" ry="12.5" style="fill:url(#ellipse2180_00000055676632465964325550000010901414362973568940_);stroke:url(#ellipse2180_00000028305418081204657660000005724746832580606865_);stroke-width:6.6569"/><text class="st4 st5 st6" transform="matrix(.9557 0 0 1 334.541 124.327)"> </text><text class="st7 st5 st6" transform="matrix(.9557 0 0 1 334.541 124.327)"> </text><text class="st4 st5 st6" transform="matrix(.9557 0 0 1 241.01 166.377)"> </text><text class="st7 st5 st6" transform="matrix(.9557 0 0 1 241.01 166.377)"> </text></svg>
